contributed-vectors/candies_n_curses.svg

<?xml version="1.0" encoding="UTF-8" standalone="no"?>
<svg
   xmlns:dc="http://purl.org/dc/elements/1.1/"
   xmlns:cc="http://creativecommons.org/ns#"
   xmlns:rdf="http://www.w3.org/1999/02/22-rdf-syntax-ns#"
   xmlns:svg="http://www.w3.org/2000/svg"
   xmlns="http://www.w3.org/2000/svg"
   xmlns:sodipodi="http://sodipodi.sourceforge.net/DTD/sodipodi-0.dtd"
   xmlns:inkscape="http://www.inkscape.org/namespaces/inkscape"
   width="192"
   height="192"
   version="1.1"
   viewBox="0 0 192 192"
   id="svg14"
   sodipodi:docname="candiesncurses.svg"
   inkscape:version="0.92.5 (2060ec1f9f, 2020-04-08)">
  <metadata
     id="metadata20">
    <rdf:RDF>
      <cc:Work
         rdf:about="">
        <dc:format>image/svg+xml</dc:format>
        <dc:type
           rdf:resource="http://purl.org/dc/dcmitype/StillImage" />
        <dc:title></dc:title>
      </cc:Work>
    </rdf:RDF>
  </metadata>
  <defs
     id="defs18" />
  <sodipodi:namedview
     pagecolor="#ffffff"
     bordercolor="#666666"
     borderopacity="1"
     objecttolerance="10"
     gridtolerance="10"
     guidetolerance="10"
     inkscape:pageopacity="0"
     inkscape:pageshadow="2"
     inkscape:window-width="1280"
     inkscape:window-height="745"
     id="namedview16"
     showgrid="false"
     inkscape:snap-global="true"
     inkscape:zoom="2.4583333"
     inkscape:cx="129.5941"
     inkscape:cy="96.558548"
     inkscape:window-x="-12"
     inkscape:window-y="-2"
     inkscape:window-maximized="1"
     inkscape:current-layer="svg14">
    <inkscape:grid
       type="xygrid"
       id="grid839" />
  </sodipodi:namedview>
  <rect
     style="opacity:1;vector-effect:none;fill:#56595B;fill-opacity:1;stroke-width:4.02631569;paint-order:stroke fill markers"
     id="rect818"
     width="153"
     height="153"
     x="19.5"
     y="19.5"
     ry="10.065789" />
  <rect
     style="opacity:1;vector-effect:none;fill:#54688c;fill-opacity:1;paint-order:stroke fill markers"
     id="rect1191"
     width="62.135403"
     height="30"
     x="65"
     y="107" />
  <path
     style="fill:#f1e9e0"
     d="m 90,121 c 0,0 8.140573,-0.10269 12,1 7,2 14,8 14,8 l -5,8 -26,-2 1,-15 z"
     id="path1193"
     inkscape:connector-curvature="0"
     sodipodi:nodetypes="csccccc" />
  <path
     style="fill:#9abeff"
     d="M 86,121 85.828125,123.58594 83,125 99,136 c 0,0 2,-4 -1.705635,-7.71236 -1.099129,-0.83683 0,0 -1.294365,-1.28764 1.777387,-0.25123 3.204945,-2 5,-2 6,7 9,9 9,9 l 4.89258,-4.89258 C 112.6972,127.38885 107.38857,123.53959 102,122 98.140573,120.89731 90,121 90,121 Z"
     id="path1268"
     inkscape:connector-curvature="0"
     sodipodi:nodetypes="cccccccccscc" />
  <path
     style="opacity:1;fill:#8C72BD"
     d="M 102 120 L 101 121 C 101 121 103 126 104 130 C 104.54233 132.1693 101 135 96 135 C 90.452228 135 86 121 86 121 L 85 143 L 64.064453 172.5 L 110.42188 172.5 C 109.23435 169.33426 106.39595 160.63921 107.19922 151 C 107.54607 146.83777 113 147 113 140 C 113 133 108.57833 133.07042 107 131 C 104.5582 127.7969 102 120 102 120 z "
     id="path1166" />
  <path
     style="fill:#54688C"
     d="M 102 120 L 101 121 C 101 121 103 126 104 130 C 104.23906 130.95624 103.68191 132.03896 102.55859 132.95312 C 103.91881 132.81665 109.24828 132.49655 111 136 C 111.74536 137.49071 111.52705 139.41886 111 141 C 110 144 108.13437 145 106 145 C 104 145 103 143 101 143 L 90 143 L 79 162 L 87 154 C 90 153 92 154 92 154 C 92 154 93 156.09961 96 156.09961 C 99 156.09961 101 155 101 155 L 104 154 C 104 154 103 157 103 165 L 103 172.5 L 109.88477 172.5 C 108.80125 167.94549 106.72591 156.67974 107.19922 151 C 107.54607 146.83777 113 147 113 140 C 113 133 108.57833 133.07042 107 131 C 104.5582 127.7969 102 120 102 120 z M 84 161 C 84 161 79 167 69 171 C 67.82724 169.82724 67.693542 168.32349 67.777344 167.26953 L 64.064453 172.5 L 77.568359 172.5 C 82.14592 168.37275 84 161 84 161 z "
     id="path1170" />
  <path
     style="opacity:1;fill:#F1E9E0"
     d="M 72 89 L 71 100 C 71 100 69 101 69 108 C 69 124 96 122 96 122 C 96 122 123 124 123 108 C 123 101 121 100 121 100 L 120 89 L 96 89 L 72 89 z "
     id="path843" />
  <path
     style="fill:#9ABEFF"
     d="M 77 91 C 76 94 72 94 72 94 L 71.544922 94 L 71 100 C 71 100 69.655852 100.73633 69.177734 104.89062 C 70.077656 104.32082 78.926647 99 96 99 C 112.18287 99 121.91374 104.37771 122.82227 104.90039 C 122.34516 100.73731 121 100 121 100 L 120.45508 94 L 120 94 C 120 94 116 94 115 91 L 105 91 L 105 93 L 96 93 L 87 93 L 87 91 L 77 91 z "
     id="path1266" />
  <path
     style="opacity:1;fill:#4A4A4A"
     d="m 80,103 c -2,0 -4,-1 -4,-1 0,0 -1.880607,-0.26427 -2,-1 -0.07551,-0.46532 1,-1 1,-1 v -1 c 0,0 -2,-0.254644 -2,-1 0,-0.745356 2,-1 2,-1 0,0 0,-8 6,-8 10,0 11,4 11,4 0,0 -1,10 -12,10 z"
     id="path1004"
     inkscape:connector-curvature="0"
     sodipodi:nodetypes="scsccscccs" />
  <path
     style="opacity:1;fill:#ffffff"
     d="m 80,103 c 0,0 -4,0 -4,-5 0,-3.14466 1.85534,-8 5,-8 11,0 11,3 11,3 v 7 c 0,3 -4,3 -4,3 z"
     id="path1006"
     inkscape:connector-curvature="0"
     sodipodi:nodetypes="csscscc" />
  <rect
     style="opacity:1;vector-effect:none;fill:#4A4A4A;fill-opacity:1;paint-order:stroke fill markers"
     id="rect1008"
     width="6"
     height="10"
     x="86"
     y="89"
     ry="3" />
  <path
     style="opacity:1;fill:#FFD6D4"
     d="M 73.914062 31.947266 C 63.046185 31.903086 63 47 63 47 C 63 47 68 43 74 43 C 77.682972 43 79.727488 45.16331 80.554688 46.306641 C 57.702071 53.293129 44 74.588871 44 87 C 44 95.232726 53 110 53 110 C 53 110 50 118 50 126 C 50 142 58 148 67 148 C 77 148 85 141 85 135 C 85 127 82 124 82 124 C 82 124 78.795055 126 77 126 C 71 126 71 114.32456 71 108 C 71 97 72 94 72 94 C 72 94 76 94 77 91 L 87 91 L 87 93 L 96 93 L 105 93 L 105 91 L 115 91 C 116 94 120 94 120 94 C 120 94 121 97 121 108 C 121 114.32456 121 126 115 126 C 113.20495 126 110 124 110 124 C 110 124 107 127 107 135 C 107 141 115 148 125 148 C 134 148 142 142 142 126 C 142 118 139 110 139 110 C 139 110 148 95.232726 148 87 C 148 72 128 44 96 44 C 93.212595 44 90.521892 44.225243 87.921875 44.623047 C 87.538165 42.810402 84.998643 32.908968 75 32 C 74.62654 31.966049 74.264639 31.948691 73.914062 31.947266 z "
     id="path847" />
  <path
     style="fill:#54688c"
     d="M 129.41797 161.90039 C 127.72565 161.86987 126.06066 162.33973 125 163.40039 C 121 167.40039 117 171 117 171 L 118.5 172.5 L 135.375 172.5 L 136 172 C 138.39975 170.0802 136.39721 165.32336 134 163.40039 C 132.82994 162.4618 131.11029 161.93091 129.41797 161.90039 z "
     id="path1131" />
  <path
     style="opacity:1;fill:#4A4A4A"
     d="m 112,103 c 2,0 4,-1 4,-1 0,0 1.88061,-0.26427 2,-1 0.0755,-0.46532 -1,-1 -1,-1 v -1 c 0,0 2,-0.254644 2,-1 0,-0.745356 -2,-1 -2,-1 0,0 0,-8 -6,-8 -10,0 -11,4 -11,4 0,0 1,10 12,10 z"
     id="path1004-9"
     inkscape:connector-curvature="0"
     sodipodi:nodetypes="scsccscccs" />
  <path
     style="opacity:1;fill:#ffffff"
     d="m 112,103 c 0,0 4,0 4,-5 0,-3.14466 -1.85534,-8 -5,-8 -11,0 -11,3 -11,3 v 7 c 0,3 4,3 4,3 z"
     id="path1006-2"
     inkscape:connector-curvature="0"
     sodipodi:nodetypes="csscscc" />
  <path
     style="fill:#f1e9e0"
     d="M 112.66406 133.68359 C 112.0625 133.65625 111.5 133.75 111 134 C 106.86642 150.53432 104.66243 164.9944 103.67188 172.5 L 121.97461 172.5 C 120.98357 168.13978 120 162.45114 120 157 C 120.00714 151.24578 123 140 123 140 C 123 140 116.875 133.875 112.66406 133.68359 z "
     id="path1129" />
  <path
     style="fill:#9abeff"
     d="M 110.74414 135.05273 C 108.81534 142.88263 107.33689 150.1844 106.19141 156.53906 C 106.67079 155.32254 109.27683 149 112 149 C 116 149 120 159 120 159 L 120.04102 158.88867 C 120.01649 158.2574 120 157.62718 120 157 C 120.00714 151.24578 123 140 123 140 C 123 140 122.15874 139.18102 120.94922 138.1582 L 110.74414 135.05273 z "
     id="path1133" />
  <rect
     style="opacity:1;vector-effect:none;fill:#4A4A4A;fill-opacity:1;paint-order:stroke fill markers"
     id="rect1008-2"
     width="6"
     height="10"
     x="-106"
     y="89"
     ry="3"
     transform="scale(-1,1)" />
  <path
     style="opacity:1;fill:#BD9AFF"
     d="M 94 44 C 94 44 90 47 90 50 C 93 46 96 45 96 45 C 96 45 99 46 102 50 C 102 47 98 44 98 44 L 96 44 L 94 44 z M 68 62 C 68 62 61 67 58 75 C 54.381307 74.276261 51.310774 71.474943 49.876953 69.972656 C 46.052045 76.084199 44 82.205803 44 87 C 44 95.232726 53 110 53 110 C 53 110 56.316718 89.838699 59 80 C 62 69 68 62 68 62 z M 124 62 C 124 62 130 69 133 80 C 135.68328 89.838699 139 110 139 110 C 139 110 148 95.232726 148 87 C 148 82.205803 145.94795 76.084199 142.12305 69.972656 C 140.68923 71.474943 137.61869 74.276261 134 75 C 131 67 124 62 124 62 z M 76 68 C 76 68 71 69 70 75 C 69.44927 78.304379 69 85 69 85 C 69 85 69 91 66 94 C 64 93 64 90 64 90 C 64 90 63.015089 96.650075 63 100 C 62.98342 103.68175 64 111 64 111 C 64 111 64 107 66 106 C 67 110 66.601052 110.60631 67 113 C 69 125 74 129 74 129 C 74 129 67 129 60 114 C 61 131 65 134 65 134 C 65 134 58 133 53 125 C 55.821042 140.98591 63.852997 147.17147 64.8125 147.86133 C 65.533771 147.94436 66.26139 148 67 148 C 77 148 85 141 85 135 C 85 127 82 124 82 124 C 82 124 78.795055 126 77 126 C 71 126 71 114.32456 71 108 C 71 97 72 94 72 94 C 72 94 76 94 77 91 L 87 91 L 87 93 L 96 93 L 105 93 L 105 91 L 115 91 C 116 94 120 94 120 94 C 120 94 121 97 121 108 C 121 114.32456 121 126 115 126 C 113.20494 126 110 124 110 124 C 110 124 107 127 107 135 C 107 141 115 148 125 148 C 125.73861 148 126.46623 147.94436 127.1875 147.86133 C 128.147 147.17147 136.17896 140.98591 139 125 C 134 133 127 134 127 134 C 127 134 131 131 132 114 C 125 129 118 129 118 129 C 118 129 123 125 125 113 C 125.39895 110.60631 125 110 126 106 C 128 107 128 111 128 111 C 128 111 129.0166 103.68175 129 100 C 128.98491 96.650075 128 90 128 90 C 128 90 128 93 126 94 C 123 91 123 85 123 85 C 123 85 122.55073 78.30438 122 75 C 121 69 116 68 116 68 C 116 68 117.80388 71.01942 118 72 C 119 77 118 83 118 83 C 118 83 118 85 116 85 L 107 85 C 107 85 107 80 105 74 C 106 83 105 85 105 85 C 105 85 105 87 103 87 L 96 87 L 89 87 C 87 87 87 85 87 85 C 87 85 86 83 87 74 C 85 80 85 85 85 85 L 76 85 C 74 85 74 83 74 83 C 74 83 73 77 74 72 C 74.196116 71.019419 76 68 76 68 z "
     id="path851" />
  <path
     style="opacity:1;fill:#F1E9E0"
     d="M 73 93.923828 C 72.68715 93.968052 72.359989 94 72 94 L 71 100 C 71 100 69 101 69 108 C 69 111.87968 70.594868 114.69404 73 116.74219 L 73 93.923828 z "
     id="path843-9" />
  <path
     style="color:#000000;font-style:normal;font-variant:normal;font-weight:normal;font-stretch:normal;font-size:medium;line-height:normal;font-family:sans-serif;font-variant-ligatures:normal;font-variant-position:normal;font-variant-caps:normal;font-variant-numeric:normal;font-variant-alternates:normal;font-feature-settings:normal;text-indent:0;text-align:start;text-decoration:none;text-decoration-line:none;text-decoration-style:solid;text-decoration-color:#000000;letter-spacing:normal;word-spacing:normal;text-transform:none;writing-mode:lr-tb;direction:ltr;text-orientation:mixed;dominant-baseline:auto;baseline-shift:baseline;text-anchor:start;white-space:normal;shape-padding:0;clip-rule:nonzero;display:inline;overflow:visible;visibility:visible;opacity:1;isolation:auto;mix-blend-mode:normal;color-interpolation:sRGB;color-interpolation-filters:linearRGB;solid-color:#000000;solid-opacity:1;vector-effect:none;fill:#4A4A4A;fill-opacity:1;fill-rule:nonzero;stroke:none;stroke-width:0.5;stroke-linecap:round;stroke-linejoin:round;stroke-miterlimit:4;stroke-dasharray:none;stroke-dashoffset:0;stroke-opacity:1;color-rendering:auto;image-rendering:auto;shape-rendering:auto;text-rendering:auto;enable-background:accumulate"
     d="m 106.01758,117.25 c 0,0 -2.51906,-0.17913 -4.70899,1.05664 -1.364291,0.76987 -3.328121,0.94336 -3.328121,0.94336 a 0.250025,0.250025 0 1 0 0.03906,0.49805 c 0,0 2.023689,-0.15295 3.535159,-1.00586 2.02775,-1.14425 4.42773,-0.99414 4.42773,-0.99414 a 0.250025,0.250025 0 1 0 0.0352,-0.49805 z"
     id="path996"
     inkscape:connector-curvature="0" />
  <path
     style="fill:#4A4A4A"
     d="m 93,104 c 0,0 1,-2 3,-2 2,0 3,2 3,2 0,0 -1,-1 -3,-1 -2,0 -3,1 -3,1 z"
     id="path998"
     inkscape:connector-curvature="0"
     sodipodi:nodetypes="cscsc" />
  <path
     style="fill:#bd9aff"
     d="M 67.974609 33.980469 C 63.031413 38.089298 63 47 63 47 C 63 47 66.608991 44.124643 71.369141 43.253906 C 70.699098 42.427868 69.65489 40.964671 69 39 C 68.305506 36.91652 68.052808 35.196915 67.974609 33.980469 z M 84.425781 37.160156 C 83.907087 38.398531 82.922067 40.077933 81 42 C 79.929072 43.070928 78.582989 43.559916 77.552734 43.791016 C 79.10965 44.541948 80.037634 45.613966 80.539062 46.3125 C 82.903807 45.588729 85.361976 45.014307 87.917969 44.623047 C 87.73144 43.731738 86.90306 40.318554 84.425781 37.160156 z "
     id="path1010" />
  <path
     inkscape:connector-curvature="0"
     style="opacity:1;fill:#F1E9E0"
     d="M 119,93.923828 C 119.31285,93.968052 119.64001,94 120,94 l 1,6 c 0,0 2,1 2,8 0,3.87968 -1.59487,6.69404 -4,8.74219 z"
     id="path843-9-8" />
  <path
     style="fill:#9ABEFF"
     d="M 73 93.923828 C 72.894299 93.93877 72.771792 93.937838 72.662109 93.949219 C 72.260762 93.998365 72 94 72 94 L 71 100 C 71 100 69.662577 100.73577 69.181641 104.86523 C 69.180633 104.87389 69.178734 104.88194 69.177734 104.89062 C 69.486795 104.69494 70.80469 103.92601 73 103.01758 L 73 93.923828 z M 119 93.923828 L 119 103.13281 C 121.16042 104.00236 122.52058 104.72683 122.82227 104.90039 C 122.34516 100.73731 121 100 121 100 L 120 94 C 120 94 119.73924 93.998365 119.33789 93.949219 C 119.22821 93.937838 119.1057 93.93877 119 93.923828 z "
     id="path1266-9" />
  <path
     style="opacity:1;vector-effect:none;fill:#FF837D;fill-opacity:1;paint-order:stroke fill markers"
     d="M 71.5 102 C 70.794183 102 70.142335 102.21174 69.59375 102.56836 C 69.265193 103.7576 69.005645 105.46481 69.001953 107.95117 C 69.636312 108.59768 70.518495 109 71.5 109 L 74.5 109 C 76.439 109 78 107.439 78 105.5 C 78 103.561 76.439 102 74.5 102 L 71.5 102 z "
     id="rect1084" />
  <path
     style="fill:#9abeff"
     d="m 78,115 c 0,-3 2,-5 4,-5 2.403701,0 6,1 6,6 0,2 -1,3 -1,3 0,0 -6,1.72759 -6,-0.3 0,-2 -3,-1.7 -3,-3.7 z"
     id="path1443"
     inkscape:connector-curvature="0"
     sodipodi:nodetypes="ssscss" />
  <path
     style="fill:#F1E9E0"
     d="m 68,146 c -3,0 -4.824838,6.50593 -4,10 0.922197,3.90649 4,8 9,8 9.689628,0 19,-22 19,-22 h 3 c 0,0 4,0 4,-4 0,-1.66667 0,-5 0,-5 0,0 0,-4 -5,-6 -2.495206,-0.99808 -7,-4 -7,-4 v -8 c 0,-2 -2.868891,-4.11803 -5,-4 -1.882733,0.10428 -4,2.11438 -4,4 0,1.41421 3,1 3,3 v 5 l -5,13 c 0,0 -1.486471,6.88814 -4,9 -1.052259,0.8841 -2.625631,1 -4,1 z"
     id="path1168"
     inkscape:connector-curvature="0"
     sodipodi:nodetypes="sssccscscssssccss" />
  <path
     inkscape:connector-curvature="0"
     style="opacity:1;vector-effect:none;fill:#FF837D;fill-opacity:1;paint-order:stroke fill markers"
     d="m 120.5,102 c 0.70582,0 1.35766,0.21174 1.90625,0.56836 0.32856,1.18924 0.58811,2.89645 0.5918,5.38281 C 122.36369,108.59768 121.48151,109 120.5,109 h -3 c -1.939,0 -3.5,-1.561 -3.5,-3.5 0,-1.939 1.561,-3.5 3.5,-3.5 z"
     id="rect1084-9" />
  <path
     style="fill:#9ABEFF"
     d="m 91,132 c -2.236068,0 -3.768536,0.69397 -5,2 -1.446281,1.53386 -2,4 -2,6 0,2 -6,8 -10,8 -1.153097,0 -2.583049,-1.40603 -3.380859,-2.29102 C 69.784424,145.95479 68.853751,146 68,146 c -3,0 -4.824838,6.50593 -4,10 0.922197,3.90649 4,8 9,8 9.689628,0 19,-22 19,-22 v 0 h 3 c 0,0 4,0 4,-4 v -4 c 0,0 -1,-2 -8,-2 z"
     id="path1286"
     inkscape:connector-curvature="0"
     sodipodi:nodetypes="scsscssscccscs" />
  <path
     style="fill:#54688c"
     d="m 92,142 c 0,0 2,-2.50929 2,-4 0,-2 -3,-3 -3,-3 0,0 2,1 2,3 0,1.37437 -1,4 -1,4 z"
     id="path1320"
     inkscape:connector-curvature="0"
     sodipodi:nodetypes="cscsc" />
</svg>

<svg xmlns="http://www.w3.org/2000/svg" width="192" height="192"><rect width="153" height="153" x="19.5" y="19.5" ry="10.066" style="opacity:1;vector-effect:none;fill:#56595b;fill-opacity:1;stroke-width:4.02631569;paint-order:stroke fill markers"/><path d="M65 107h62.135v30H65z" style="opacity:1;vector-effect:none;fill:#54688c;fill-opacity:1;paint-order:stroke fill markers"/><path d="M90 121s8.14-.103 12 1c7 2 14 8 14 8l-5 8-26-2 1-15z" style="fill:#f1e9e0"/><path d="m86 121-.172 2.586L83 125l16 11s2-4-1.706-7.712c-1.099-.837 0 0-1.294-1.288 1.777-.251 3.205-2 5-2 6 7 9 9 9 9l4.893-4.893c-2.196-1.718-7.504-5.567-12.893-7.107-3.86-1.103-12-1-12-1Z" style="fill:#9abeff"/><path d="m102 120-1 1s2 5 3 9c.542 2.17-3 5-8 5-5.548 0-10-14-10-14l-1 22-20.936 29.5h46.358c-1.188-3.166-4.026-11.86-3.223-21.5.347-4.162 5.801-4 5.801-11s-4.422-6.93-6-9c-2.442-3.203-5-11-5-11z" style="opacity:1;fill:#8c72bd"/><path d="m102 120-1 1s2 5 3 9c.24.956-.318 2.039-1.441 2.953 1.36-.136 6.69-.456 8.441 3.047.745 1.49.527 3.419 0 5-1 3-2.866 4-5 4-2 0-3-2-5-2H90l-11 19 8-8c3-1 5 0 5 0s1 2.1 4 2.1 5-1.1 5-1.1l3-1s-1 3-1 11v7.5h6.885c-1.084-4.555-3.16-15.82-2.686-21.5.347-4.162 5.801-4 5.801-11s-4.422-6.93-6-9c-2.442-3.203-5-11-5-11zm-18 41s-5 6-15 10c-1.173-1.173-1.306-2.677-1.223-3.73l-3.713 5.23h13.504C82.146 168.373 84 161 84 161z" style="fill:#54688c"/><path d="m72 89-1 11s-2 1-2 8c0 16 27 14 27 14s27 2 27-14c0-7-2-8-2-8l-1-11H72z" style="opacity:1;fill:#f1e9e0"/><path d="M77 91c-1 3-5 3-5 3h-.455L71 100s-1.344.736-1.822 4.89c.9-.57 9.749-5.89 26.822-5.89 16.183 0 25.914 5.378 26.822 5.9-.477-4.163-1.822-4.9-1.822-4.9l-.545-6H120s-4 0-5-3h-10v2H87v-2H77z" style="fill:#9abeff"/><path d="M80 103c-2 0-4-1-4-1s-1.88-.264-2-1c-.076-.465 1-1 1-1v-1s-2-.255-2-1 2-1 2-1 0-8 6-8c10 0 11 4 11 4s-1 10-12 10z" style="opacity:1;fill:#4a4a4a"/><path d="M80 103s-4 0-4-5c0-3.145 1.855-8 5-8 11 0 11 3 11 3v7c0 3-4 3-4 3z" style="opacity:1;fill:#fff"/><rect width="6" height="10" x="86" y="89" ry="3" style="opacity:1;vector-effect:none;fill:#4a4a4a;fill-opacity:1;paint-order:stroke fill markers"/><path d="M73.914 31.947C63.046 31.903 63 47 63 47s5-4 11-4c3.683 0 5.727 2.163 6.555 3.307C57.702 53.293 44 74.589 44 87c0 8.233 9 23 9 23s-3 8-3 16c0 16 8 22 17 22 10 0 18-7 18-13 0-8-3-11-3-11s-3.205 2-5 2c-6 0-6-11.675-6-18 0-11 1-14 1-14s4 0 5-3h10v2h18v-2h10c1 3 5 3 5 3s1 3 1 14c0 6.325 0 18-6 18-1.795 0-5-2-5-2s-3 3-3 11c0 6 8 13 18 13 9 0 17-6 17-22 0-8-3-16-3-16s9-14.767 9-23c0-15-20-43-52-43a53.3 53.3 0 0 0-8.078.623C87.538 42.81 84.999 32.909 75 32a12.56 12.56 0 0 0-1.086-.053z" style="opacity:1;fill:#ffd6d4"/><path d="M129.418 161.9c-1.692-.03-3.357.44-4.418 1.5-4 4-8 7.6-8 7.6l1.5 1.5h16.875l.625-.5c2.4-1.92.397-6.677-2-8.6-1.17-.938-2.89-1.47-4.582-1.5z" style="fill:#54688c"/><path d="M112 103c2 0 4-1 4-1s1.88-.264 2-1c.075-.465-1-1-1-1v-1s2-.255 2-1-2-1-2-1 0-8-6-8c-10 0-11 4-11 4s1 10 12 10z" style="opacity:1;fill:#4a4a4a"/><path d="M112 103s4 0 4-5c0-3.145-1.855-8-5-8-11 0-11 3-11 3v7c0 3 4 3 4 3z" style="opacity:1;fill:#fff"/><path d="M112.664 133.684c-.602-.028-1.164.066-1.664.316-4.134 16.534-6.338 30.994-7.328 38.5h18.303c-.991-4.36-1.975-10.049-1.975-15.5.007-5.754 3-17 3-17s-6.125-6.125-10.336-6.316z" style="fill:#f1e9e0"/><path d="M110.744 135.053a348.21 348.21 0 0 0-4.553 21.486c.48-1.216 3.086-7.539 5.809-7.539 4 0 8 10 8 10l.041-.111A48.687 48.687 0 0 1 120 157c.007-5.754 3-17 3-17s-.841-.819-2.05-1.842l-10.206-3.105z" style="fill:#9abeff"/><rect width="6" height="10" x="-106" y="89" ry="3" style="opacity:1;vector-effect:none;fill:#4a4a4a;fill-opacity:1;paint-order:stroke fill markers" transform="scale(-1 1)"/><path d="M94 44s-4 3-4 6c3-4 6-5 6-5s3 1 6 5c0-3-4-6-4-6h-4zM68 62s-7 5-10 13c-3.619-.724-6.69-3.525-8.123-5.027C46.052 76.084 44 82.206 44 87c0 8.233 9 23 9 23s3.317-20.161 6-30c3-11 9-18 9-18zm56 0s6 7 9 18c2.683 9.839 6 30 6 30s9-14.767 9-23c0-4.794-2.052-10.916-5.877-17.027C140.69 71.475 137.62 74.276 134 75c-3-8-10-13-10-13zm-48 6s-5 1-6 7c-.55 3.304-1 10-1 10s0 6-3 9c-2-1-2-4-2-4s-.985 6.65-1 10c-.017 3.682 1 11 1 11s0-4 2-5c1 4 .601 4.606 1 7 2 12 7 16 7 16s-7 0-14-15c1 17 5 20 5 20s-7-1-12-9c2.821 15.986 10.853 22.171 11.813 22.861A19.09 19.09 0 0 0 67 148c10 0 18-7 18-13 0-8-3-11-3-11s-3.205 2-5 2c-6 0-6-11.675-6-18 0-11 1-14 1-14s4 0 5-3h10v2h18v-2h10c1 3 5 3 5 3s1 3 1 14c0 6.325 0 18-6 18-1.795 0-5-2-5-2s-3 3-3 11c0 6 8 13 18 13 .739 0 1.466-.056 2.188-.139.959-.69 8.991-6.875 11.812-22.861-5 8-12 9-12 9s4-3 5-20c-7 15-14 15-14 15s5-4 7-16c.399-2.394 0-3 1-7 2 1 2 5 2 5s1.017-7.318 1-11c-.015-3.35-1-10-1-10s0 3-2 4c-3-3-3-9-3-9s-.45-6.696-1-10c-1-6-6-7-6-7s1.804 3.02 2 4c1 5 0 11 0 11s0 2-2 2h-9s0-5-2-11c1 9 0 11 0 11s0 2-2 2H89c-2 0-2-2-2-2s-1-2 0-11c-2 6-2 11-2 11h-9c-2 0-2-2-2-2s-1-6 0-11c.196-.98 2-4 2-4z" style="opacity:1;fill:#bd9aff"/><path d="M73 93.924c-.313.044-.64.076-1 .076l-1 6s-2 1-2 8c0 3.88 1.595 6.694 4 8.742V93.924z" style="opacity:1;fill:#f1e9e0"/><path d="M106.018 117.25s-2.52-.18-4.71 1.057c-1.364.77-3.328.943-3.328.943a.25.25 0 1 0 .04.498s2.023-.153 3.535-1.006c2.027-1.144 4.427-.994 4.427-.994a.25.25 0 1 0 .036-.498z" style="color:#000;font-style:normal;font-variant:normal;font-weight:400;font-stretch:normal;font-size:medium;line-height:normal;font-family:sans-serif;font-variant-ligatures:normal;font-variant-position:normal;font-variant-caps:normal;font-variant-numeric:normal;font-variant-alternates:normal;font-feature-settings:normal;text-indent:0;text-align:start;text-decoration:none;text-decoration-line:none;text-decoration-style:solid;text-decoration-color:#000;letter-spacing:normal;word-spacing:normal;text-transform:none;writing-mode:lr-tb;direction:ltr;text-orientation:mixed;dominant-baseline:auto;baseline-shift:baseline;text-anchor:start;white-space:normal;shape-padding:0;clip-rule:nonzero;display:inline;overflow:visible;visibility:visible;opacity:1;isolation:auto;mix-blend-mode:normal;color-interpolation:sRGB;color-interpolation-filters:linearRGB;solid-color:#000;solid-opacity:1;vector-effect:none;fill:#4a4a4a;fill-opacity:1;fill-rule:nonzero;stroke:none;stroke-width:.5;stroke-linecap:round;stroke-linejoin:round;stroke-miterlimit:4;stroke-dasharray:none;stroke-dashoffset:0;stroke-opacity:1;color-rendering:auto;image-rendering:auto;shape-rendering:auto;text-rendering:auto;enable-background:accumulate"/><path d="M93 104s1-2 3-2 3 2 3 2-1-1-3-1-3 1-3 1z" style="fill:#4a4a4a"/><path d="M67.975 33.98C63.03 38.09 63 47 63 47s3.609-2.875 8.37-3.746c-.67-.826-1.715-2.29-2.37-4.254-.694-2.083-.947-3.803-1.025-5.02zm16.45 3.18C83.908 38.4 82.923 40.078 81 42c-1.07 1.07-2.417 1.56-3.447 1.791a7.865 7.865 0 0 1 2.986 2.522 52.136 52.136 0 0 1 7.379-1.69c-.187-.891-1.015-4.304-3.492-7.463z" style="fill:#bd9aff"/><path d="M119 93.924c.313.044.64.076 1 .076l1 6s2 1 2 8c0 3.88-1.595 6.694-4 8.742z" style="opacity:1;fill:#f1e9e0"/><path d="M73 93.924c-.106.015-.228.014-.338.025C72.261 94 72 94 72 94l-1 6s-1.337.736-1.818 4.865l-.004.026c.309-.196 1.627-.965 3.822-1.873v-9.094zm46 0v9.209c2.16.87 3.52 1.594 3.822 1.767-.477-4.163-1.822-4.9-1.822-4.9l-1-6s-.26-.002-.662-.05c-.11-.012-.232-.011-.338-.026z" style="fill:#9abeff"/><path d="M71.5 102c-.706 0-1.358.212-1.906.568-.329 1.19-.588 2.897-.592 5.383A3.485 3.485 0 0 0 71.5 109h3c1.939 0 3.5-1.561 3.5-3.5s-1.561-3.5-3.5-3.5h-3z" style="opacity:1;vector-effect:none;fill:#ff837d;fill-opacity:1;paint-order:stroke fill markers"/><path d="M78 115c0-3 2-5 4-5 2.404 0 6 1 6 6 0 2-1 3-1 3s-6 1.728-6-.3c0-2-3-1.7-3-3.7z" style="fill:#9abeff"/><path d="M68 146c-3 0-4.825 6.506-4 10 .922 3.906 4 8 9 8 9.69 0 19-22 19-22h3s4 0 4-4v-5s0-4-5-6c-2.495-.998-7-4-7-4v-8c0-2-2.869-4.118-5-4-1.883.104-4 2.114-4 4 0 1.414 3 1 3 3v5l-5 13s-1.486 6.888-4 9c-1.052.884-2.626 1-4 1z" style="fill:#f1e9e0"/><path d="M120.5 102c.706 0 1.358.212 1.906.568.329 1.19.588 2.897.592 5.383A3.485 3.485 0 0 1 120.5 109h-3a3.492 3.492 0 0 1-3.5-3.5c0-1.939 1.561-3.5 3.5-3.5z" style="opacity:1;vector-effect:none;fill:#ff837d;fill-opacity:1;paint-order:stroke fill markers"/><path d="M91 132c-2.236 0-3.769.694-5 2-1.446 1.534-2 4-2 6s-6 8-10 8c-1.153 0-2.583-1.406-3.38-2.291-.836.246-1.766.291-2.62.291-3 0-4.825 6.506-4 10 .922 3.906 4 8 9 8 9.69 0 19-22 19-22h3s4 0 4-4v-4s-1-2-8-2z" style="fill:#9abeff"/><path d="M92 142s2-2.51 2-4c0-2-3-3-3-3s2 1 2 3c0 1.374-1 4-1 4z" style="fill:#54688c"/></svg>
